lib/logo_updates/nrk-logo-nrk-p1-plus-with-bg.svg

<svg width="261" height="84" viewBox="0 0 261 84" fill="none" xmlns="http://www.w3.org/2000/svg">
<rect width="261" height="84" fill="#015F88"/>
<path d="M20 63V21.0038H33.7802V63H20ZM52.5283 27.6877L60.4532 63H45.3721L35.9092 21.0038H44.3676C46.3072 20.9786 48.1892 21.6624 49.6607 22.9264C51.1347 24.1373 52.1473 25.8184 52.5283 27.6877ZM62.5233 63V21.0038H76.3035V63H62.5233ZM86.7116 36.9743C85.2267 36.9888 83.7656 36.6003 82.4839 35.8504C81.2193 35.1194 80.1688 34.0689 79.438 32.8041C78.6872 31.5222 78.2986 30.0607 78.3134 28.5751C78.2964 27.0986 78.6853 25.6458 79.438 24.3755C80.1766 23.1245 81.2259 22.0853 82.4839 21.3588C83.766 20.6098 85.2269 20.2213 86.7116 20.2348C88.1877 20.2189 89.6399 20.6078 90.9108 21.3588C92.1562 22.0917 93.1943 23.13 93.9271 24.3755C94.6789 25.6462 95.0677 27.0987 95.0517 28.5751C95.0655 30.0605 94.6769 31.5218 93.9271 32.8041C93.202 34.0633 92.1627 35.113 90.9108 35.8504C89.6398 36.6029 88.1866 36.9918 86.7097 36.9743H86.7116ZM97.1807 63V21.0038H110.962V63H97.1807ZM128.408 43.9538C128.447 43.9946 128.742 44.4776 129.295 45.403C129.848 46.3283 130.567 47.5114 131.454 48.952C132.341 50.392 133.277 51.9199 134.262 53.536C135.247 55.1521 136.174 56.6803 137.043 58.1202C137.908 59.5602 138.894 61.1867 140 63H124.859C123.912 61.4621 123.055 60.0721 122.286 58.83C121.517 57.5878 120.7 56.2471 119.833 54.8077C118.965 53.3698 118.107 51.9699 117.259 50.6081C116.41 49.2464 115.681 48.0536 115.071 47.0297C114.459 46.0051 114.035 45.3149 113.799 44.9594C113.214 44.0771 112.868 43.058 112.794 42.0019C112.853 40.9883 113.179 40.0084 113.74 39.1619C113.976 38.7676 114.41 38.0675 115.041 37.062C115.672 36.0564 116.411 34.8637 117.259 33.4835C118.106 32.1034 118.965 30.6936 119.833 29.2543C120.702 27.815 121.519 26.4643 122.286 25.2025C123.056 23.9419 123.914 22.5421 124.859 21.0029H140L128.289 40.1082C127.926 40.6755 127.722 41.3292 127.697 42.0019C127.736 42.7081 127.983 43.3871 128.406 43.9538H128.408Z" fill="white"/>
<path d="M184.472 26.4429C183.746 25.3213 182.813 24.3479 181.725 23.5743C180.511 22.7235 179.163 22.0835 177.738 21.6815C176.007 21.2031 174.217 20.9744 172.421 21.0023H156V62.9981H162.202V47.9151H172.894C175.307 47.9521 177.689 47.3611 179.805 46.1997C181.834 45.0751 183.518 43.4189 184.678 41.4087C185.922 39.1905 186.544 36.6773 186.48 34.1343C186.485 32.7596 186.327 31.3891 186.008 30.052C185.7 28.7716 185.181 27.5517 184.472 26.4429ZM178.978 39.1896C178.184 40.4369 177.016 41.4001 175.641 41.9411C173.972 42.5729 172.196 42.8742 170.412 42.8282H162.202V26.1482H171.24C172.966 26.0826 174.684 26.4166 176.261 27.1242C177.515 27.7313 178.54 28.7269 179.185 29.9633C179.867 31.3504 180.202 32.8833 180.159 34.4291C180.227 36.0963 179.817 37.7481 178.978 39.1896Z" fill="#85E6D6"/>
<path d="M199.09 22.3921C198.244 22.8456 197.417 23.2692 196.61 23.6629C195.804 24.0566 194.986 24.4509 194.159 24.8458C193.332 25.2402 192.485 25.5961 191.619 25.9106C190.753 26.2251 189.826 26.5425 188.842 26.857L190.142 31.8846C191.324 31.5297 192.396 31.1749 193.361 30.82C194.306 30.4741 195.232 30.0792 196.137 29.6369C197.024 29.2045 197.91 28.7316 198.795 28.2184L198.824 28.2007V63H204.967V21.0041H201.778C200.832 21.4754 199.936 21.938 199.09 22.3921Z" fill="#85E6D6"/>
<path d="M229.009 39.6924V27.7452H223.811V39.6924H211.82V44.3652H223.811V56.2552H229.009V44.3652H241V39.6924H229.009Z" fill="#85E6D6"/>
</svg>

<svg xmlns="http://www.w3.org/2000/svg" viewBox="0 0 261 84"><path fill="#015F88" d="M0 0h261v84H0z"/><path fill="#fff" d="M20 63V21.004h13.78V63H20Zm32.528-35.312L60.453 63h-15.08l-9.464-41.996h8.459a7.965 7.965 0 0 1 5.293 1.922 8.31 8.31 0 0 1 2.867 4.762ZM62.523 63V21.004h13.78V63h-13.78Zm24.189-26.026a8.213 8.213 0 0 1-4.228-1.124 8.336 8.336 0 0 1-3.046-3.046 8.206 8.206 0 0 1-1.125-4.229 8.056 8.056 0 0 1 1.125-4.2 8.437 8.437 0 0 1 3.046-3.016 8.233 8.233 0 0 1 4.228-1.124 8.083 8.083 0 0 1 4.199 1.124 8.504 8.504 0 0 1 3.016 3.016 8.075 8.075 0 0 1 1.125 4.2 8.226 8.226 0 0 1-1.125 4.23 8.4 8.4 0 0 1-3.016 3.045 8.059 8.059 0 0 1-4.201 1.124h.002ZM97.18 63V21.004h13.781V63H97.181Zm31.227-19.046c.039.04.334.524.887 1.449.553.925 1.272 2.108 2.159 3.549a1143.28 1143.28 0 0 1 5.589 9.168A854.89 854.89 0 0 0 140 63h-15.141c-.947-1.538-1.804-2.928-2.573-4.17a388.795 388.795 0 0 1-2.453-4.022 355.984 355.984 0 0 0-2.574-4.2 210.645 210.645 0 0 1-2.188-3.578 62.13 62.13 0 0 0-1.272-2.07 6.127 6.127 0 0 1-1.005-2.958 5.745 5.745 0 0 1 .946-2.84c.236-.394.67-1.094 1.301-2.1.631-1.006 1.37-2.198 2.218-3.578.847-1.38 1.706-2.79 2.574-4.23.869-1.439 1.686-2.79 2.453-4.052.77-1.26 1.628-2.66 2.573-4.2H140l-11.711 19.106a3.773 3.773 0 0 0-.592 1.894c.039.706.286 1.385.709 1.952h.002Z"/><path fill="#85E6D6" d="M184.472 26.443a10.566 10.566 0 0 0-2.747-2.869 13.186 13.186 0 0 0-3.987-1.893 18.858 18.858 0 0 0-5.317-.679H156v41.996h6.202V47.915h10.692a13.92 13.92 0 0 0 6.911-1.715 12.779 12.779 0 0 0 4.873-4.791 14.144 14.144 0 0 0 1.802-7.275 17.32 17.32 0 0 0-.472-4.082 11.84 11.84 0 0 0-1.536-3.61Zm-5.494 12.747a6.99 6.99 0 0 1-3.337 2.751 13.768 13.768 0 0 1-5.229.887h-8.21v-16.68h9.038a11.223 11.223 0 0 1 5.021.976 6.487 6.487 0 0 1 2.924 2.84 9.523 9.523 0 0 1 .974 4.465 8.755 8.755 0 0 1-1.181 4.76ZM199.09 22.392c-.846.454-1.673.877-2.48 1.27-.806.395-1.624.789-2.451 1.184-.827.394-1.674.75-2.54 1.065-.866.314-1.793.631-2.777.946l1.3 5.028a56.132 56.132 0 0 0 3.219-1.065c.945-.346 1.871-.74 2.776-1.183a41.902 41.902 0 0 0 2.658-1.419l.029-.017V63h6.143V21.004h-3.189c-.946.471-1.842.934-2.688 1.388ZM229.009 39.692V27.745h-5.198v11.947H211.82v4.673h11.991v11.89h5.198v-11.89H241v-4.673h-11.991Z"/></svg>
